X: 28
T:Kesh
M:6/8
L:1/8
R:Jig
K:G maj
|:~G3GAB|ABA ABd|edd gdd|edB dBA|GAG GAB|ABA ABd|edd gdB|1AGFG2D:|2AG
FG2A|  |:~B3dBd|ege dBG|~B3dBG|ABA AGA|~B3dBd|ege dBd|gfg aga|bgg ~
g3:|
